X:106
T:12th of August. MBe.106, The
S:Matthew Betham MS, Towcett Cumbria, 1815
O:England;Cumbria;Towcett
Z:VMP – Hugh Taylor, 2012
M:6/8
L:1/8
Q:3/8=100
R:.Jig
C:in margin ‘Matthew Betham Towcett’
N:The page is torn and the music is incomplete.
N:Someone has written, possibly in the same hand, “Matthew Betham Towcett”.
N:There is some other writing at the bottom of the page that I can’t interpret.
K:G
d|B2A B2A|GdB G2d|e2d e2f|gfe d2f|
gfe dcB|edc BAG|G2F A2:”>page torn”yyyy|
d|g2d e2d|efg d2d|g2d e2d|gfe d2d|
g2d e2d|efg d2d|g2d a2d|b3:”>page torn”yyyy|

